icons/Lock.svg

<svg width="24" height="24" viewBox="0 0 24 24" fill="none" xmlns="http://www.w3.org/2000/svg">
<path fill-rule="evenodd" clip-rule="evenodd" d="M17.765 9.647H15.882V7.765C15.8901 7.26548 15.7988 6.76933 15.6133 6.30546C15.4277 5.8416 15.1517 5.4193 14.8014 5.06317C14.451 4.70704 14.0332 4.4242 13.5725 4.23114C13.1117 4.03807 12.6171 3.93864 12.1175 3.93864C11.6179 3.93864 11.1233 4.03807 10.6625 4.23114C10.2018 4.4242 9.78401 4.70704 9.43364 5.06317C9.08326 5.4193 8.80727 5.8416 8.62174 6.30546C8.43621 6.76933 8.34486 7.26548 8.353 7.765V9.647H6.471C6.34608 9.647 6.22628 9.69663 6.13795 9.78496C6.04962 9.87328 6 9.99308 6 10.118V19.53C6.00026 19.6547 6.05 19.7743 6.13831 19.8624C6.22661 19.9505 6.34626 20 6.471 20H17.765C17.8899 20 18.0097 19.9504 18.098 19.862C18.1864 19.7737 18.236 19.6539 18.236 19.529V10.118C18.236 9.99308 18.1864 9.87328 18.098 9.78496C18.0097 9.69663 17.8899 9.647 17.765 9.647ZM10.235 7.765C10.235 7.26573 10.4333 6.78691 10.7864 6.43387C11.1394 6.08084 11.6182 5.8825 12.1175 5.8825C12.6168 5.8825 13.0956 6.08084 13.4486 6.43387C13.8017 6.78691 14 7.26573 14 7.765V9.647H10.235V7.765Z" fill="black"/>
</svg>

<svg xmlns="http://www.w3.org/2000/svg" viewBox="0 0 24 24">
  <path d="M17.765 9.647h-1.883V7.765a3.766 3.766 0 00-7.26-1.46c-.186.464-.277.96-.269 1.46v1.882H6.471a.471.471 0 00-.471.471v9.412a.471.471 0 00.471.47h11.294a.47.47 0 00.471-.471v-9.411a.47.47 0 00-.471-.471zm-7.53-1.882a1.882 1.882 0 113.765 0v1.882h-3.765V7.765z"/>
</svg>
